data/icons/scalable/actions/address-expansion-symbolic.svg

<?xml version="1.0" encoding="UTF-8"?>
<svg height="16px" viewBox="0 0 16 16" width="16px" xmlns="http://www.w3.org/2000/svg">
    <path d="m 7.664062 0.0078125 c -2.613281 0.1093755 -5.003906 1.4882815 -6.410156 3.6953125 c -1.90625 3 -1.605468 6.898437 0.734375 9.574219 c 2.347657 2.667968 6.175781 3.472656 9.398438 1.96875 c 0.5 -0.230469 0.714843 -0.828125 0.484375 -1.328125 c -0.234375 -0.5 -0.828125 -0.714844 -1.332032 -0.484375 c -2.414062 1.132812 -5.289062 0.53125 -7.046874 -1.476563 c -1.761719 -2.003906 -1.988282 -4.933593 -0.550782 -7.179687 c 1.429688 -2.253906 4.175782 -3.285156 6.738282 -2.539063 c 2.5625 0.746094 4.324218 3.09375 4.320312 5.761719 v 0.039062 v 0.960938 c 0 0.359375 -0.1875 0.683594 -0.5 0.863281 c -0.308594 0.179688 -0.6875 0.179688 -1 0 c -0.308594 -0.175781 -0.5 -0.507812 -0.5 -0.863281 v -1 c 0 -2.199219 -1.800781 -4 -4 -4 c -2.195312 0 -4 1.800781 -4 4 c 0 2.195312 1.804688 4 4 4 c 1.046875 0 1.992188 -0.417969 2.707031 -1.078125 c 0.222657 0.265625 0.488281 0.496094 0.792969 0.675781 c 0.929688 0.535156 2.074219 0.535156 3 0 c 0.929688 -0.535156 1.5 -1.527344 1.5 -2.597656 v -1 c 0 -3.554688 -2.347656 -6.683594 -5.761719 -7.683594 c -0.835937 -0.2421872 -1.703125 -0.347656 -2.574219 -0.3085935 z m 0.335938 5.9921875 c 1.117188 0 2 0.882812 2 2 c 0 1.113281 -0.882812 2 -2 2 c -1.113281 0 -2 -0.886719 -2 -2 c 0 -1.117188 0.886719 -2 2 -2 z m 0 0" fill="#222222"/>
</svg>

<svg xmlns="http://www.w3.org/2000/svg" width="16" height="16" viewBox="0 0 16 16"><path fill="#222" d="M7.664.008a8 8 0 0 0-6.41 3.695 8.02 8.02 0 0 0 .734 9.574 8.01 8.01 0 0 0 9.399 1.97c.5-.231.715-.829.484-1.329a1.006 1.006 0 0 0-1.332-.484 5.99 5.99 0 0 1-7.047-1.477 5.99 5.99 0 0 1-.55-7.18A5.99 5.99 0 0 1 9.68 2.238 5.99 5.99 0 0 1 14 8v1c0 .36-.187.684-.5.863a1 1 0 0 1-1 0A1 1 0 0 1 12 9V8c0-2.2-1.8-4-4-4-2.195 0-4 1.8-4 4 0 2.195 1.805 4 4 4a3.98 3.98 0 0 0 2.707-1.078c.223.265.488.496.793.676.93.535 2.074.535 3 0A3 3 0 0 0 16 9V8A8.01 8.01 0 0 0 10.238.316 8 8 0 0 0 7.664.008M8 6c1.117 0 2 .883 2 2 0 1.113-.883 2-2 2-1.113 0-2-.887-2-2 0-1.117.887-2 2-2m0 0"/></svg>
